svgs/light/sim-card.svg

<svg xmlns="http://www.w3.org/2000/svg" viewBox="0 0 384 512"><!-- Font Awesome Pro 5.15.3 by @fontawesome - https://fontawesome.com License - https://fontawesome.com/license (Commercial License) --><path d="M64 240v160c0 26.5 21.5 48 48 48h160c26.5 0 48-21.5 48-48V240c0-26.5-21.5-48-48-48H112c-26.5 0-48 21.5-48 48zm152 24h-48v-40h48v40zm72 0h-40v-40h24c8.8 0 16 7.2 16 16v24zm-40 112h40v24c0 8.8-7.2 16-16 16h-24v-40zm-80 0h48v40h-48v-40zm-72 0h40v40h-24c-8.8 0-16-7.2-16-16v-24zm0-80h192v48H96v-48zm0-56c0-8.8 7.2-16 16-16h24v40H96v-24zM0 64v384c0 35.3 28.7 64 64 64h256c35.3 0 64-28.7 64-64V128L256 0H64C28.7 0 0 28.7 0 64zm32 0c0-17.6 14.4-32 32-32h178.7L352 141.3V448c0 17.6-14.4 32-32 32H64c-17.6 0-32-14.4-32-32V64z"/></svg>

<svg xmlns="http://www.w3.org/2000/svg" viewBox="0 0 384 512"><!--! Font Awesome Pro 6.0.0 by @fontawesome - https://fontawesome.com License - https://fontawesome.com/license (Commercial License) Copyright 2022 Fonticons, Inc. --><path d="M365.3 109.3l-90.51-90.51C262.7 6.742 246.5 0 229.5 0H64C28.8 0 0 28.8 0 64v384c0 35.2 28.8 64 64 64h256c35.2 0 64-28.8 64-64V154.5C384 137.5 377.3 121.3 365.3 109.3zM352 448c0 17.6-14.4 32-32 32H64c-17.6 0-32-14.4-32-32V64c0-17.6 14.4-32 32-32h165.5c8.486 0 16.62 3.371 22.63 9.373l90.5 90.5C348.6 137.9 352 146 352 154.5V448zM272 192h-160C85.5 192 64 213.5 64 240v160C64 426.5 85.5 448 112 448h160c26.5 0 48-21.5 48-48v-160C320 213.5 298.5 192 272 192zM168 224h48v40h-48V224zM96 240C96 231.3 103.3 224 112 224h24v40H96V240zM136 416H112C103.3 416 96 408.8 96 400v-24h40V416zM216 416h-48v-40h48V416zM288 400c0 8.75-7.25 16-16 16h-24v-40H288V400zM288 344H96v-48h192V344zM288 264h-40V224h24C280.8 224 288 231.3 288 240V264z"/></svg>
